X:51
T:The New Spring
Z:Dave Holland dave@biff.org.uk
M:C
L:1/8
K:G
P:A
"G"G2AB "D"c2BA|"G"GG "D"AF "G"G2dd|"G"d2ef "C"g2fe|"G"d6 d2|
"G"g2fg d2cB|"C"c2de "G"d2GA|"G"B2cd "D"c2BA||"times 1-3"x "G"G2z2 "D"A4||"last time"x "G"G8|]
P:B
"G"G2AB d2z2|"D"F2GA d2z2|"G"G2AB "C"g2fe|"G"d2cB "D"A2GA|"G"B2cd "Am"c2BA|"C"G4 "D"A4:|
